X: 37577
T: Smell The Rain
R: jig
M: 6/8
K: Dmajor
BGE EFD|FAD FAd|~B2A Bgf|edB ABd|
BGE EFD|FAd Bef|~g3 edB|Adc d3|
BGE EFD|FAD FAd|~B2A Bgf|edB cde|
dcA BGE|DFA def|~g3 edB|Adc d2e||
faa bfa|efd edB|AFA Bgf|edB ABd|
faa bfa|efA Bef|~g3 edB|Adc d2e|
faa bfa|efd edB|AFA Bgf|edB cde|
dcA BGE|DFA def|~g3 edB|Adc d3||

